!!!COM: Beethoven
!!!OTL: 7 Variations on a Quartet by Winter
!!!Variation: Variation 6 d
**function	**harm	**kern	**kern
*	*	*clefF4	*clefG2
*	*	*k[b-e-a-d-]	*k[b-e-a-d-]
*M2/4	*M2/4	*M2/4	*M2/4
*f:	*f:	*f:	*f:
=323	=323	=323	=323
4D	B:dim7	8r	(4.c 4.e- 4.cc
.	.	(8F#	.
4D	C:maj	8GL	.
.	.	8GGJ)	8B) 8d 8b
=324	=324	=324	=324
2D	F:maj	4C	8c'L 8e-' 8cc'
.	.	.	(8f#J 8ff#
.	.	4r	8gL 8gg
.	.	.	8e-J) 8ee-
=325	=325	=325	=325
4D	B:dim7	8r	(4.c 4.e- 4.cc
.	.	(8F#	.
4D	C:maj	8GL	.
.	.	8GGJ)	8B) 8d 8b
=326	=326	=326	=326
4D	F:maj	4C	4c 4e- 4cc
*	*	*^	*
4D	F:dim/b3	4r	8g-L	8ee-L
.	.	.	8g-J	8ee-J
=327	=327	=327	=327	=327
*	*	*	*	*^
4.T	G-:maj	2F	(8fL	(8dd-L	8r
.	.	.	8e-J	8ccJ	(8ee-
.	.	.	8d-L	8b-L	8gg-L
8T	B-:maj	.	8cJ)	8a-J)	8ffJ)
=328	=328	=328	=328	=328	=328
2P	E-:min	4BB-	4B-	4f	(8ee-L
.	.	.	.	.	8dd-J)
*	*	*	*	*v	*v
.	.	4r	8d-L	8b-L
.	.	.	8d-J	8b-J
=329	=329	=329	=329	=329
*	*	*	*	*^
2D	F:7	2C	(8cL	(8a-L	8r
.	.	.	8B-J	8gJ	(8b-
.	.	.	8A-L	8fL	8dd-L
.	.	.	8GJ)	8eJ)	8ccJ)
=330	=330	=330	=330	=330	=330
*	*	*v	*v	*	*
4T	B-:min	4FF 4F	4c	(8b-L
.	.	.	.	8a-J)
*	*	*	*v	*v
*-	*-	*-	*-
!!!EMD: Edited in humdrumR 0.7.0.3 on 2024-01-19
